X:1
T:"Inte, inte går vi in te' Ollas!"
B:Lösblad Gästriklands Spelmansförbund 116
O:Gästrikland
R:Polska
S:efter Johan Högblom
Z:Sture Skogh, 2012
M:3/4
L:1/8
K:G
DD GG BB|ddB2G2|DD GG BB|dBc2A2|DD FF AA|ddf2f2|1eed2d2|ccB2G2:|2edd2cA|G2G2z2||
|:d2B>D GB|d2c>BA2|dd ee ff|g2f>ed2|d2B>D GB|d2c>BA2|dd ee ff|[gB]2[gB]2z2:|

